src/lib/packages/icons/src/assets/line/credit-card-ban.svg

<svg xmlns="http://www.w3.org/2000/svg" width="24" height="24" fill="none"><path fill="currentColor" d="M11 17.25H5c-1.577 0-2.25-.673-2.25-2.25V9.75h16.5V10a.75.75 0 0 0 1.5 0V7c0-2.418-1.332-3.75-3.75-3.75H5C2.582 3.25 1.25 4.582 1.25 7v8c0 2.418 1.332 3.75 3.75 3.75h6a.75.75 0 0 0 0-1.5ZM5 4.75h12c1.577 0 2.25.673 2.25 2.25v1.25H2.75V7c0-1.577.673-2.25 2.25-2.25Zm4 8.5a.75.75 0 0 1 0 1.5H6a.75.75 0 0 1 0-1.5h3Zm8.5-1a4.255 4.255 0 0 0-4.25 4.25 4.255 4.255 0 0 0 4.25 4.25 4.255 4.255 0 0 0 4.25-4.25 4.255 4.255 0 0 0-4.25-4.25Zm0 1.5c.485 0 .935.137 1.331.358l-3.723 3.723a2.72 2.72 0 0 1-.358-1.331 2.752 2.752 0 0 1 2.75-2.75Zm0 5.5a2.72 2.72 0 0 1-1.331-.358l3.723-3.723c.221.396.358.846.358 1.331a2.752 2.752 0 0 1-2.75 2.75Z"/></svg>

<svg width="24" height="24" viewBox="0 0 24 24" fill="none" xmlns="http://www.w3.org/2000/svg">
<path d="M11 17.25H5C3.423 17.25 2.75 16.577 2.75 15V9.75H19.25V10C19.25 10.414 19.586 10.75 20 10.75C20.414 10.75 20.75 10.414 20.75 10V7C20.75 4.582 19.418 3.25 17 3.25H5C2.582 3.25 1.25 4.582 1.25 7V15C1.25 17.418 2.582 18.75 5 18.75H11C11.414 18.75 11.75 18.414 11.75 18C11.75 17.586 11.414 17.25 11 17.25ZM5 4.75H17C18.577 4.75 19.25 5.423 19.25 7V8.25H2.75V7C2.75 5.423 3.423 4.75 5 4.75ZM9 13.25C9.414 13.25 9.75 13.586 9.75 14C9.75 14.414 9.414 14.75 9 14.75H6C5.586 14.75 5.25 14.414 5.25 14C5.25 13.586 5.586 13.25 6 13.25H9ZM17.5 12.25C15.157 12.25 13.25 14.157 13.25 16.5C13.25 18.843 15.157 20.75 17.5 20.75C19.843 20.75 21.75 18.843 21.75 16.5C21.75 14.157 19.843 12.25 17.5 12.25ZM17.5 13.75C17.985 13.75 18.435 13.887 18.831 14.108L15.108 17.831C14.887 17.435 14.75 16.985 14.75 16.5C14.75 14.983 15.983 13.75 17.5 13.75ZM17.5 19.25C17.015 19.25 16.565 19.113 16.169 18.892L19.892 15.169C20.113 15.565 20.25 16.015 20.25 16.5C20.25 18.017 19.017 19.25 17.5 19.25Z" fill="currentColor"/>
</svg>
